packages/foundations/assets/icons/functional/images/arrows/sort_down.svg

<svg xmlns="http://www.w3.org/2000/svg" width="32" height="32" fill="none"><path fill="#1A1C1F" fill-rule="evenodd" d="M12.525 2.134c-.378.2-.568.594-.501 1.04.047.313.371.691.662.772.127.035 3.019.053 8.354.053 7.855-.001 8.168-.005 8.38-.101.12-.055.281-.181.357-.28.132-.173.261-.58.223-.705a4 4 0 0 1-.05-.205c-.039-.178-.313-.499-.515-.604-.129-.067-1.301-.077-8.432-.075-8.083.002-8.288.005-8.478.105M8.88 7.011a2 2 0 0 1-.196.051c-.207.045-.471.288-.584.536-.094.206-.098.611-.099 9.602L8 26.586l-2.2-2.194c-1.21-1.207-2.277-2.233-2.371-2.28-.211-.106-.666-.111-.858-.01a1.4 1.4 0 0 0-.491.506c-.092.18-.082.596.021.812.049.103 1.467 1.56 3.246 3.335 2.919 2.911 3.178 3.155 3.4 3.209q.444.107.843-.171c.108-.075 1.558-1.499 3.221-3.165 2.085-2.087 3.05-3.09 3.106-3.226a1.02 1.02 0 0 0-.318-1.193c-.256-.195-.762-.245-1.044-.102-.1.051-1.159 1.066-2.354 2.257l-2.173 2.165-.014-9.385L10 7.76l-.141-.241a1.1 1.1 0 0 0-.347-.355c-.201-.113-.527-.191-.632-.153m9.013.001c-.029.01-.119.033-.199.051-.195.043-.52.335-.609.548a.98.98 0 0 0 .266 1.121c.107.093.284.196.395.228.141.041 1.881.054 5.854.043 5.616-.016 5.655-.017 5.867-.128.129-.068.273-.208.366-.357a.96.96 0 0 0-.339-1.363l-.241-.142-5.653-.009c-3.109-.006-5.677-.002-5.707.008m4.694 5.089a.89.89 0 0 0-.537.638 1 1 0 0 0 .073.735c.088.165.418.439.585.485.19.053 6.394.053 6.584 0 .167-.046.497-.32.585-.485.263-.491.045-1.144-.457-1.372-.207-.094-.408-.1-3.42-.1-2.998 0-3.213.007-3.413.099m3.973 5.016c-.412.219-.62.656-.522 1.094.061.276.152.412.397.599l.197.15h2.736l.197-.15q.547-.416.381-1.067c-.073-.289-.232-.482-.517-.628-.178-.092-.321-.101-1.44-.099-1.106.002-1.263.013-1.429.101"/></svg>

<svg width="32" height="32" viewBox="0 0 32 32" fill="none" xmlns="http://www.w3.org/2000/svg"><path d="M12.525 2.134 C 12.147 2.334,11.957 2.728,12.024 3.174 C 12.071 3.487,12.395 3.865,12.686 3.946 C 12.813 3.981,15.705 3.999,21.040 3.999 C 28.895 3.998,29.208 3.994,29.420 3.898 C 29.540 3.843,29.701 3.717,29.777 3.618 C 29.909 3.445,30.038 3.038,30.000 2.913 C 29.990 2.880,29.968 2.788,29.950 2.708 C 29.911 2.530,29.637 2.209,29.435 2.104 C 29.306 2.037,28.134 2.027,21.003 2.029 C 12.920 2.031,12.715 2.034,12.525 2.134 M8.880 7.011 C 8.851 7.022,8.763 7.045,8.684 7.062 C 8.477 7.107,8.213 7.350,8.100 7.598 C 8.006 7.804,8.002 8.209,8.001 17.200 L 8.000 26.586 5.800 24.392 C 4.590 23.185,3.523 22.159,3.429 22.112 C 3.218 22.006,2.763 22.001,2.571 22.102 C 2.403 22.190,2.175 22.425,2.080 22.608 C 1.988 22.788,1.998 23.204,2.101 23.420 C 2.150 23.523,3.568 24.980,5.347 26.755 C 8.266 29.666,8.525 29.910,8.747 29.964 C 9.043 30.035,9.324 29.978,9.590 29.793 C 9.698 29.718,11.148 28.294,12.811 26.628 C 14.896 24.541,15.861 23.538,15.917 23.402 C 16.092 22.983,15.958 22.483,15.599 22.209 C 15.343 22.014,14.837 21.964,14.555 22.107 C 14.455 22.158,13.396 23.173,12.201 24.364 L 10.028 26.529 10.014 17.144 L 10.000 7.760 9.859 7.519 C 9.777 7.380,9.631 7.231,9.512 7.164 C 9.311 7.051,8.985 6.973,8.880 7.011 M17.893 7.012 C 17.864 7.022,17.774 7.045,17.694 7.063 C 17.499 7.106,17.174 7.398,17.085 7.611 C 16.922 8.002,17.028 8.448,17.351 8.732 C 17.458 8.825,17.635 8.928,17.746 8.960 C 17.887 9.001,19.627 9.014,23.600 9.003 C 29.216 8.987,29.255 8.986,29.467 8.875 C 29.596 8.807,29.740 8.667,29.833 8.518 C 30.132 8.036,29.984 7.443,29.494 7.155 L 29.253 7.013 23.600 7.004 C 20.491 6.998,17.923 7.002,17.893 7.012 M22.587 12.101 C 22.292 12.237,22.131 12.429,22.050 12.739 C 21.981 13.006,22.006 13.255,22.123 13.474 C 22.211 13.639,22.541 13.913,22.708 13.959 C 22.898 14.012,29.102 14.012,29.292 13.959 C 29.459 13.913,29.789 13.639,29.877 13.474 C 30.140 12.983,29.922 12.330,29.420 12.102 C 29.213 12.008,29.012 12.002,26.000 12.002 C 23.002 12.002,22.787 12.009,22.587 12.101 M26.560 17.117 C 26.148 17.336,25.940 17.773,26.038 18.211 C 26.099 18.487,26.190 18.623,26.435 18.810 L 26.632 18.960 28.000 18.960 L 29.368 18.960 29.565 18.810 C 29.930 18.532,30.057 18.177,29.946 17.743 C 29.873 17.454,29.714 17.261,29.429 17.115 C 29.251 17.023,29.108 17.014,27.989 17.016 C 26.883 17.018,26.726 17.029,26.560 17.117 " fill="#1A1C1F" stroke="none" fill-rule="evenodd"></path></svg>
